Dominus_Funeral/22/devices/colorimeter-colorhug.svg

<svg xmlns="http://www.w3.org/2000/svg" width="24" height="24" viewBox="0 0 12.7 12.7"><defs><linearGradient id="b"><stop offset="0" stop-color="#333"/><stop offset="1" stop-color="#333" stop-opacity="0"/></linearGradient><linearGradient id="a"><stop offset="0" stop-color="#22241c"/><stop offset="1" stop-color="#1a1a1a" stop-opacity="0"/></linearGradient></defs><path d="M7.244.721a5.97 5.97 0 0 0-.19.007 2.144 2.144 0 0 0-1.355.524c-.382.348-.656.87-.656 1.507 0 1.399-.808 2.005-1.581 1.985-.522-.014-1.08-.32-1.382-1.054l-.452.803c.452.67 1.12 1.036 1.807 1.056 1.237.032 2.413-1.05 2.413-2.79a1.13 1.13 0 0 1 .378-.905 1.355 1.355 0 0 1 .852-.324 1.329 1.329 0 0 1 .855.225.831.831 0 0 1 .35.726v3.072H6.457a.582.582 0 0 0-.581.581v5.262a.582.582 0 0 0 .583.583h4.456a.582.582 0 0 0 .585-.583V6.132a.582.582 0 0 0-.585-.58H9.09v-3.07a1.658 1.658 0 0 0-.654-1.354 2.005 2.005 0 0 0-1.002-.4A1.93 1.93 0 0 0 7.244.72zM1.856 2.335L1.201 3.44l.027.1.628-1.104zm0 .274L1.252 3.69l.05.154.577-.984a3.152 3.152 0 0 1-.023-.25zm.05.403l-.554.954c.022.05.053.103.077.152l.525-.903c-.012-.068-.038-.13-.048-.203zm.075.353l-.502.88c.03.053.067.096.1.149l.476-.828c-.022-.064-.054-.13-.074-.201zm4.585 3.004h4.296v2.846H6.566z" fill="#1a1a1a"/></svg>

<?xml version="1.0" encoding="UTF-8" standalone="no"?>
<svg
   xmlns:dc="http://purl.org/dc/elements/1.1/"
   xmlns:cc="http://creativecommons.org/ns#"
   xmlns:rdf="http://www.w3.org/1999/02/22-rdf-syntax-ns#"
   xmlns:svg="http://www.w3.org/2000/svg"
   xmlns="http://www.w3.org/2000/svg"
   xmlns:sodipodi="http://sodipodi.sourceforge.net/DTD/sodipodi-0.dtd"
   xmlns:inkscape="http://www.inkscape.org/namespaces/inkscape"
   width="24"
   height="24"
   viewBox="0 0 12.7 12.7"
   version="1.1"
   id="svg16"
   sodipodi:docname="colorimeter-colorhug.svg"
   inkscape:version="0.92.4 (5da689c313, 2019-01-14)">
  <metadata
     id="metadata20">
    <rdf:RDF>
      <cc:Work
         rdf:about="">
        <dc:format>image/svg+xml</dc:format>
        <dc:type
           rdf:resource="http://purl.org/dc/dcmitype/StillImage" />
        <dc:title></dc:title>
      </cc:Work>
    </rdf:RDF>
  </metadata>
  <sodipodi:namedview
     pagecolor="#ffffff"
     bordercolor="#666666"
     borderopacity="1"
     objecttolerance="10"
     gridtolerance="10"
     guidetolerance="10"
     inkscape:pageopacity="0"
     inkscape:pageshadow="2"
     inkscape:window-width="1138"
     inkscape:window-height="480"
     id="namedview18"
     showgrid="false"
     inkscape:zoom="9.8333333"
     inkscape:cx="1.0677966"
     inkscape:cy="12"
     inkscape:window-x="0"
     inkscape:window-y="25"
     inkscape:window-maximized="0"
     inkscape:current-layer="svg16" />
  <defs
     id="defs12">
    <linearGradient
       id="b">
      <stop
         offset="0"
         stop-color="#333"
         id="stop2" />
      <stop
         offset="1"
         stop-color="#333"
         stop-opacity="0"
         id="stop4" />
    </linearGradient>
    <linearGradient
       id="a">
      <stop
         offset="0"
         stop-color="#22241c"
         id="stop7" />
      <stop
         offset="1"
         stop-color="#1a1a1a"
         stop-opacity="0"
         id="stop9" />
    </linearGradient>
  </defs>
  <path
     d="M 7.244,0.721 A 5.97,5.97 0 0 0 7.054,0.728 2.144,2.144 0 0 0 5.699,1.252 C 5.317,1.6 5.043,2.122 5.043,2.759 5.043,4.158 4.235,4.764 3.462,4.744 2.94,4.73 2.382,4.424 2.08,3.69 L 1.628,4.493 c 0.452,0.67 1.12,1.036 1.807,1.056 1.237,0.032 2.413,-1.05 2.413,-2.79 A 1.13,1.13 0 0 1 6.226,1.854 1.355,1.355 0 0 1 7.078,1.53 1.329,1.329 0 0 1 7.933,1.755 0.831,0.831 0 0 1 8.283,2.481 V 5.553 H 6.457 A 0.582,0.582 0 0 0 5.876,6.134 v 5.262 a 0.582,0.582 0 0 0 0.583,0.583 h 4.456 A 0.582,0.582 0 0 0 11.5,11.396 V 6.132 A 0.582,0.582 0 0 0 10.915,5.552 H 9.09 V 2.482 A 1.658,1.658 0 0 0 8.436,1.128 2.005,2.005 0 0 0 7.434,0.728 1.93,1.93 0 0 0 7.244,0.72 Z M 1.856,2.335 1.201,3.44 1.228,3.54 1.856,2.436 Z m 0,0.274 L 1.252,3.69 1.302,3.844 1.879,2.86 A 3.152,3.152 0 0 1 1.856,2.61 Z m 0.05,0.403 -0.554,0.954 c 0.022,0.05 0.053,0.103 0.077,0.152 L 1.954,3.215 C 1.942,3.147 1.916,3.085 1.906,3.012 Z m 0.075,0.353 -0.502,0.88 c 0.03,0.053 0.067,0.096 0.1,0.149 L 2.055,3.566 C 2.033,3.502 2.001,3.436 1.981,3.365 Z m 4.585,3.004 h 4.296 V 9.215 H 6.566 Z"
     id="path14"
     inkscape:connector-curvature="0"
     style="fill:#1a1a1a" />
</svg>
